!!!!SEGMENT: pl-wtm--r-1405--002_stefani-jozef-piano-music.krn
!!!id: 18xx:1875
!!!COM: Stefani, Józef
!!!OTL: Piano music
!!!PDT:
!!!SMS-siglum: PL-Wtm
!!!SMS-shelfmark: R 1405
!!!NIFC-rismID: 1001117991
!!!URL-scan: http://repozytorium.nifc.pl/skany/pl-wtm-nut--r1405
!!!ONB-nifc: UWAGA: skan 0002-0003, str. 1-2, od drugiej połowy strony, tonacja A-dur
!!!SMS-variant:
!!!SMS-altvar:
**kern	**kern	**dynam
*part1	*part1	*part1
*staff2	*staff1	*
*I"Piano	*I"Piano	*
*I'P-no	*I'P-no	*
*clefF4	*clefG2	*
*k[f#c#g#]	*k[f#c#g#]	*
*M4/4	*M4/4	*
*met(c)	*met(c)	*
=1	=1	=1
!	!	!LO:DY:rj
4B\ 4G#\ 4E\	4ee\ 4b\ 4g#\ 4e\	ff
4r	4r	.
4B\ 4G#\ 4E\	4gg#\ 4ee\ 4b\	.
4r	4r	.
=2	=2	=2
4d\ 4B\ 4G#\ 4E\	4bb\ 4gg#\ 4ee\ 4b\	.
4r	4r	.
2r	4r	.
.	8r	.
.	32r	p
.	(32e/LLL	.
.	32a/	.
.	[>32cc#\JJJ)	.
=3	=3	=3
8e\ 8c#\ 8A\	8ee\ 8cc#\]	.
8r	8r	.
4f#\ 4d#X\ 4A\	(32dd#X\LLL	>
.	32b#X\	.
.	32dd#\	.
.	32b#\	.
.	32dd#\	]
.	32b#\	.
.	32dd#\	.
.	32b#\JJJ)	.
!!LO:LB:g=original
8e\ 8c#\ 8A\	8ee\ 8cc#\	.
8r	32r	.
.	(32ee\LLL	.
.	32aa\	.
.	32ccc#\JJJ	f
4e\ 4c#\ 4A\	4eee\)	.
=4	=4	=4
!	!	!LO:DY:rj
8e\ 8c#\ 8A\	8cc#/ 8a/	p
8r	8r	.
4f#\ 4d#X\ 4A\	(32b#X\LLL	.
.	32a/	.
.	32b#\	>
.	32a/	.
.	32b#\	.
.	32a/	]
.	32b#\	.
.	32a/JJJ	.
8e\ 8c#\ 8A\	8cc#/ 8a/)	.
8r	32r	.
.	(32cc#\LLL	.
.	32ee\	.
.	32aa\JJJ	f
4A\ 4E\ 4AA\	4ccc#\)	.
=5	=5	=5
.	(8qee/ (8qcc#/	p
8E/ 8EE/	8dd\ 8b\))	.
8r	8r	.
4d\ 4G#X\ 4E\	(16b/LL 16e/'	.
.	16b/ 16e/'	.
.	16b/ 16e/'	.
.	16b/JJ 16e/')	.
.	(8qee/ (8qcc#/	.
8E/ 8EE/	8dd\ 8b\))	.
8r	8r	.
4d\ 4G#\ 4E\	(16b/LL 16e/'	.
.	16b/ 16e/'	.
.	16b/ 16e/'	.
.	16b/JJ 16e/')	.
!!LO:LB:g=original
=6	=6	=6
.	(8qb/	.
8A\ 8AA\	8a/L)	.
8r	16r	.
.	16g#/'Jk	<
4c#\ 4A\ 4E\	8a/'L	.
.	16r	.
.	16ff#\Jk 16f#\'	.
4E/ 4EE/	(4ee/ (4e/'	[ >
8B\ 8G#\ 8E\	8b\))	.
8r	32r	]
.	(32e/LLL<	.
.	32a/	.
.	32cc#\JJJ	.
=7	=7	=7
8e\ 8c#\ 8A\	8ee\ 8cc#\)	.
8r	8r	.
4f#\ 4d#X\ 4A\	(32dd#X\LLL	>
.	32b\	.
.	32dd#\	.
.	32b\	.
.	32dd#\	]
.	32b\	.
.	32dd#\	.
.	32b\JJJ	.
8e\ 8c#\ 8A\	8ee\ 8cc#\)	.
8r	32r	.
.	(32ee\LLL	.
.	32aa\	f
.	32ccc#\JJJ)	.
4e\ 4c#\ 4A\	4eee\	.
=8	=8	=8
*	*^	*
!	!	!	!LO:DY:rj
8e\ 8c#\ 8A\	8cc#/	8a\	p
8r	8r	8ryy	.
4f#\ 4d#X\ 4A\	(32b#X/LLL	4ryy	>
.	32g#X/	.	.
.	32b#/	.	]
.	32g#/	.	.
.	32b#/	.	.
.	32g#/	.	.
.	32b#/	.	.
.	32g#/JJJ)	.	.
8e\ 8c#\ 8A\	8cc#/ 8a/	2ryy	.
8r	32rA	.	.
.	(32cc#/LLL	.	.
.	32ee/	.	f
.	32aa/JJJ	.	.
4A/ 4E/ 4AA/	4ccc#/)	.	.
*	*v	*v	*
!!LO:LB:g=original
=9	=9	=9
.	(8qdd/ (8qb/	.
8BB/ 8BBB/	8cc#/ 8a/))	.
8r	8r	.
8G#\ 8E\ 8BB\	(16gg#\LL 16ee\ 16b\'	.
.	16gg#\ 16ee\ 16b\'	.
8r	16gg#\ 16ee\ 16b\'	.
.	16gg#\JJ 16ee\ 16b\')	.
.	(8qb/ (8qg#/	.
8BB/ 8BBB/	8a/ 8f#/))	.
8r	8r	.
4A\ 4F#\ 4BB\	(16ff#\LL 16dd#X\ 16b\'	.
.	16ff#\ 16dd#\ 16b\'	.
.	16ff#\ 16dd#\ 16b\'	.
.	16ff#\JJ 16dd#\ 16b\')	.
=10	=10	=10
8G#\L 8E\	8ee\L	.
16.r	32r	.
.	(32dd#X\LL	.
.	32ee\	.
32e\Jkk 32E\	32gg#\JJJ	.
8B\L 8BB\	8bb\L)	<
16.r	32r	.
.	(32ff#\LL	.
.	32gg#\	.
32G#\Jkk	32bb\JJJ	.
.	.	f
!	!LO:TX:t=V&colon;S&colon;	!
8E/ 8EE/	8eee\ 8ee\)	[
!!LO:PB:g=original
=|:	=|:	=|:
8r	(16e/LL	.
.	16f#/JJ	.
4r	8e/L)	.
.	8e/'J	.
=11	=11	=11
.	(8qee/ 8qcc#/	.
8E\L	8dd\L 8b\)	.
8f#\J 8d\ 8B\	8cc#/J 8a#X/'	.
*rep	*	*
8E\L	4.dd\ 4.b\'	.
8f#\J 8d\ 8B\	.	.
*Xrep	*	*
*rep	*	*
8E\L	.	.
8f#\J 8d\ 8B\	16b/LL 16g#/'	.
.	16b/JJ 16g#/'	.
*Xrep	*	*
*rep	*	*
8E\L	16cc#/LL 16a#/'	.
.	16cc#/ 16a#/'	.
8f#\J 8d\ 8B\	16dd\ 16b\'	.
.	16dd\JJ 16b\'	.
*Xrep	*	*
=12	=12	=12
8E\L	8ee\L 8cc#\'	.
8e\J 8c#\ 8A\	8aa\J 8cc#\'	.
*rep	*	*
8E\L	4ee\ 4cc#\'	.
8e\J 8c#\ 8A\	.	.
*Xrep	*	*
*rep	*	*
8E\L	(16ee\LL	.
.	16ccc#\)	.
8e\J 8c#\ 8A\	(16ccc#\	.
.	16aa\JJ)	.
*Xrep	*	*
*rep	*	*
8E\L	(16aa\LL	.
.	16ee\)	.
8e\J 8c#\ 8A\	(16ee\	.
.	16cc#\JJ)	.
*Xrep	*	*
=13	=13	=13
.	(8qee/ (8qcc#/	.
8E\L	8dd\L 8b\))	.
8e\J 8d\ 8B\	8cc#/J 8a#X/'	.
*rep	*	*
8E\L	4.dd\ 4.b\'	.
8e\J 8d\ 8B\	.	.
*Xrep	*	*
*rep	*	*
8E\L	.	.
8e\J 8d\ 8B\	16b/LL 16g#/'	.
.	16b/JJ 16g#/'	.
*Xrep	*	*
*rep	*	*
8E\L	16cc#/LL> 16a#/'	.
.	16cc#/ 16a#/'	.
8e\J 8d\ 8B\	16dd\ 16b\'	.
.	16dd\JJ 16b\'	.
*Xrep	*	*
!!LO:LB:g=original
=14	=14	=14
!LO:TX:a:t=P:problem:mixedbeam	!	!
8AA/L	(8ff#\L 8dd\	.
8e\J 8c#\ 8A\	8ee\J 8cc#\)	f
4e\ 4c#\ 4A\	4aa\ 4ee\ 4cc#\ 4a\	.
8r	8r	.
(16E\LL	(16e/LL	.
16F#\J)	16f#/J	.
8E\J	8e/J)	.
8r	32r	.
.	(32e/LLL	.
.	32a/	.
.	[32cc#\JJJ)	.
=15	=15	=15
8A\ 8AA\	8ee\ 8cc#\]	p
8r	8r	.
4f#\ 4d#X\ 4A\^	(32dd#X\LLL	.
.	32b#X\	.
.	32dd#\	.
.	32b#\	.
.	32dd#\	.
.	32b#\	.
.	32dd#\	.
.	32b#\JJJ	.
8e\ 8c#\ 8A\	8ee\ 8cc#\)	.
8r	32r	.
.	(32ee\LLL	.
.	32aa\	f
.	32ccc#\JJJ	.
!	!LO:SIC:v:t=wykreślony takt	!
4e\ 4c#\ 4A\	4eee\)	.
!!LO:LB:g=original
=16	=16	=16
8A#X\L	8fff#\L 8ff#\	.
8f#\J 8c#\	16r	.
.	32ggg#\LL 32gg#\	.
.	32ggg#\JJJ 32gg#\	.
*rep	*	*
8A#\L	8fff#\L 8ff#\	.
8f#\J 8c#\	16r	.
.	32ccc#\LL 32cc#\	.
.	32ccc#\JJJ 32cc#\	.
*Xrep	*	*
8B\L	(8eee\L 8ee\	.
8f#\J 8d\	16ddd\Jk 16dd\)	.
.	16r	.
8D\L	(8gg#\L 8ee\	.
8d\J 8B\ 8F#\	16ff#\Jk 16dd\)	.
.	16r	.
=17	=17	=17
8E\L	(32ff#\KLL 32dd\	.
.	16ee\JJ 16cc#\)	.
.	32r	.
8e\J 8c#\ 8A\	(32ee\KLL< 32cc#\	.
.	16cc#/JJ 16a/)	.
.	32r	.
*rep	*	*
8E\L	(32ff#\KLL 32dd\	.
.	16ee\JJ 16cc#\)	.
.	32r	.
8e\J 8c#\ 8A\	(32ee\KLL< 32cc#\	.
.	16cc#/JJ 16a/)	.
.	32r	.
*Xrep	*	*
8E\L	(32ee\KLL 32cc#\	.
.	16dd\JJ 16b\)	.
.	32r	.
8e\J 8B\ 8G#\	(32dd\KLL< 32b\	.
.	16b/JJ 16e/)	.
.	32r	.
*rep	*	*
8E\L	(32ee\KLL 32cc#\	.
.	16dd\JJ 16b\)	.
.	32r	.
8e\J 8B\ 8G#\	(16dd\LL< 16b\	.
.	32b/JJk 32e/)	.
.	32r	.
*Xrep	*	*
=18	=18	=18
8c#\ 8A\	8a/L	.
16.r	32r	.
.	(<32g#/LL	.
.	32a/	.
!LO:TX:b:t=|	!	!
32A\ 32AA\	32cc#\JJJ	.
!LO:TX:b:t=|	!	!
8E/L 8EE/	8ee\L)	.
16.r	32r	.
.	(32dd#X\LL	.
.	32ee\	.
32C#/Jkk 32CC#/'	32gg#\JJJ	.
8AA/ 8AAA/'	8aa\)	.
!!LO:LB:g=original
=19:|!	=19:|!	=19:|!
8A\L	16a/'LL	.
.	16cc#\'	.
8e\ 8c#\J	16ee\'	.
.	16ff#\'JJ	.
*rep	*	*
8A\L	16ee\'LL	.
.	16cc#\'	.
8e\J 8c#\	16ee\'	.
.	16ff#\'JJ	.
*Xrep	*	*
*rep	*	*
8A\L	16ee\'LL	.
.	16cc#\'	.
8e\ 8c#\J	16ee\'	.
.	16ff#\'JJ	.
*Xrep	*	*
*rep	*	*
8A\L	16ee\'LL	sf
.	16cc#\'	.
8e\J 8c#\	16ee\'	.
.	16aa\'JJ	.
*Xrep	*	*
=20	=20	=20
8E\L	(16aa\LL	.
.	16gg#\)	.
8f#\ 8d\ 8B\J	16dd#X\'	.
.	16ee\'JJ	.
*rep	*	*
8E\L	(16ccc#\LL	.
.	16bb\)	.
8f#\J 8d\ 8B\	16ff##X\'	.
.	16gg#\'JJ	.
*Xrep	*	*
*rep	*	*
8E\L	(16eee\LL	.
.	16ddd\	.
8f#\J 8d\ 8B\	16aa#X\')	.
.	16bb\'JJ	.
*Xrep	*	*
*rep	*	*
8E\L	(16ff##X\LL	.
.	16gg#\)	.
8f#\J 8d\ 8B\	(16dd#X\	.
.	16ee\JJ)	.
*Xrep	*	*
=21	=21	=21
8A\L	16a/'LL	.
.	16cc#\'	.
8e\ 8c#\J	16ee\'	.
.	16ff#\'JJ	.
*rep	*	*
8A\L	16ee\'LL	.
.	16cc#\'	.
8e\J 8c#\	16ee\'	.
.	16ff#\'JJ	.
*Xrep	*	*
*rep	*	*
8A\L	16ee\'LL	.
.	16cc#\'	.
8e\J 8c#\	16ee\'	.
.	16ff#\'JJ	.
*Xrep	*	*
*rep	*	*
8A\L	16ee\'LL	sf
.	16cc#\'	.
8e\J 8c#\	16ee\'	.
.	16aa\'JJ	.
*Xrep	*	*
!!LO:LB:g=original
=22	=22	=22
8E\L	(16aa\LL	.
.	16gg#\)	.
8e\J 8d\ 8B\	16dd#X\'	.
.	16ee\'JJ	.
*rep	*	*
8E\L	(16ccc#\LL	.
.	16bb\)	.
8e\J 8d\ 8B\	16ff##X\'	.
.	16gg#\'JJ	.
*Xrep	*	*
*rep	*	*
8E\L	(16eee\LL	.
.	16ddd\)	.
8e\J 8d\ 8B\	16aa#X\'	.
.	16bb\'JJ	.
*Xrep	*	*
*rep	*	*
8E\L	(16ff##X\LL	.
.	16gg#\)	.
8e\J 8d\ 8B\	(16dd#X\	.
.	16ee\JJ)	.
*Xrep	*	*
=23	=23	=23
8A\L	16a/'LL	.
.	16cc#\'	.
8e\J 8c#\	16ee\'	.
.	16ff#\'JJ	.
*rep	*	*
8A\L	16ee\'LL	.
.	16cc#\'	.
8e\J 8c#\	16ee\'	.
.	16ff#\'JJ	.
*Xrep	*	*
*rep	*	*
8A\L	16ee\'LL	.
.	16cc#\'	.
8e\J 8c#\	16ee\'	.
.	16ff#\'JJ	.
*Xrep	*	*
*rep	*	*
8A#X\L	(16ggn\LL	.
.	16ff#\)	.
8f#\J 8e\ 8c#\	16ff#\'	.
.	16ff#\'JJ	.
*Xrep	*	*
=24	=24	=24
8B\L	(16ggn\LL	.
.	16ff#\)	.
8f#\J 8d\	16ff#\'	.
.	16ff#\'JJ	.
8D\L	(16ccc#\LL	.
.	16bb\)	.
8f#\J 8d\	16bb\'	.
.	16bb\'JJ	.
8B\L	(16eee\LL	.
.	16ddd\)	.
8f#\J 8d\	16ddd\'	.
.	16ddd\'JJ	.
8D\L	(16ggg#\LL	.
.	16fff#\)	.
8f#\J 8d\	16ddd\'	.
.	16bb\'JJ	.
!!LO:LB:g=original
=25	=25	=25
8E\L	(16fff#\LL 16ddd\	.
.	16eee\ 16ccc#\)	.
8e\J 8c#\ 8A\	16eee\ 16ccc#\'	.
.	16eee\JJ 16ccc#\'	.
*rep	*rep	*
8E\L	(16fff#\LL 16ddd\	.
.	16eee\ 16ccc#\)	.
8e\J 8c#\ 8A\	16eee\ 16ccc#\'	.
.	16eee\JJ 16ccc#\'	.
*Xrep	*Xrep	*
*rep	*	*
8E\L	8ccc#\ 8aa\	.
!	!LO:TUP:a:problem:klamra łukowa	!
8e\J 8c#\ 8A\	24ee\LL	.
.	24aa\	.
.	24ccc#\JJ	.
*Xrep	*	*
*rep	*	*
8E\L	8eee\L	.
8e\J 8c#\ 8A\	8aaa\J 8eee\ 8ccc#\ 8aa\	sf
*Xrep	*	*
=26	=26	=26
8E\L	(16ggg#\LL 16eee\	.
.	16fff#\ 16ddd\)	.
8e\J 8d\ 8B\	16fff#\ 16ddd\'	.
.	16fff#\JJ 16ddd\'	.
*rep	*rep	*
8E\L	(16ggg#\LL 16eee\	.
.	16fff#\ 16ddd\)	.
8e\J 8d\ 8B\	16fff#\ 16ddd\'	.
.	16fff#\JJ 16ddd\'	.
*Xrep	*Xrep	*
*rep	*	*
8E\L	8bb\ 8gg#\	.
!	!LO:TUP:a:problem:klamra łukowa	!
8e\J 8d\ 8B\	24ee\LL	.
.	24gg#\	.
.	24bb\JJ	.
*Xrep	*	*
*rep	*	*
8E\L	8eee\L	.
8e\J 8d\ 8B\	8gg#\J 8ee\ 8b\	sf
*Xrep	*	*
=27:|!	=27:|!	=27:|!
8A\L	(16aa\LL	.
.	16ccc#\)	.
8e\J 8c#\	16eee\'	.
.	16eee\'JJ	.
8E\L	(16fff#\LL	.
.	16eee\)	.
8e\J 8d\ 8G#\	16ddd\'	.
.	16bb\'JJ	.
!!LO:LB:g=original
8A\L	(16aa\LL	.
.	16ccc#\)	.
8e\J 8c#\	16eee\'	.
.	16eee\'JJ	.
8E\L	(16fff#\LL	.
.	16eee\)	.
8e\J 8d\ 8G#\	16ddd\'	.
.	16bb\'JJ	.
=28	=28	=28
16e\LL 16c#\ 16A\	16aa\LL	.
16A\	16a/	.
16G#\	16b\	.
16F#\JJ	16cc#\JJ	.
16E\LL	16dd\LL	.
16D\	16ee\	.
16C#/	16ff#\	.
16BB/JJ	16gg#\JJ	.
!LO:TX:a:t=P:problem:mixedbeam	!	!
16AA/LL	16aa\LL	.
16A\	16aa\	.
16G#\	16bb\	.
16F#\JJ	16ccc#\JJ	.
16E\LL	16ddd\LL	.
16D\	16eee\	.
16C#/	16fff#\	.
16BB/JJ	16ggg#\JJ	.
=29	=29	=29
4AA/	4aaa\	.
4r	4r	.
4A\ 4E\ 4AA\	4ccc#\ 4aa\ 4ee\	.
8.r	8.r	.
16A\ 16E\ 16AA\	16a/ 16e/ 16c#/	.
=30	=30	=30
1A\ 1E\ 1AA\;	1a/ 1e/ 1c#/;	.
==	==	==
*-	*-	*-
!!!system-decoration: [(s1,s2)]
!!!RDF**kern: > = above
!!!RDF**kern: < = below
!!!ENC:Berenika Jozajtis
!!!END:2021-04-10
!!!EED: Leszek Kubiak
!!!EST: 2021-05-14
